packages/foundations/icons/Health/WeightLifting.svg

<svg width="24" height="24" viewBox="0 0 24 24" fill="none" xmlns="http://www.w3.org/2000/svg">
<path d="M4.5 9C4.5 8.72386 4.27614 8.5 4 8.5C3.72386 8.5 3.5 8.72386 3.5 9V11H4.5V9Z" fill="#3D474D"/>
<path d="M6.5 8C6.5 7.72386 6.27614 7.5 6 7.5C5.72386 7.5 5.5 7.72386 5.5 8V11H6.5V8Z" fill="#3D474D"/>
<path d="M4.5 11H3.5V14H4.5V11Z" fill="#3D474D"/>
<path d="M6.5 11H5.5V14H6.5V11Z" fill="#3D474D"/>
<path d="M18.5 8C18.5 7.72386 18.2761 7.5 18 7.5C17.7239 7.5 17.5 7.72386 17.5 8V11H18.5V8Z" fill="#3D474D"/>
<path d="M20.5 9C20.5 8.72386 20.2761 8.5 20 8.5C19.7239 8.5 19.5 8.72386 19.5 9V11H20.5V9Z" fill="#3D474D"/>
<path d="M20.5 11H19.5V14H20.5V11Z" fill="#3D474D"/>
<path fill-rule="evenodd" clip-rule="evenodd" d="M6 7C5.44772 7 5 7.44772 5 8V9C5 8.44772 4.55228 8 4 8C3.44772 8 3 8.44772 3 9V11H2.5C1.67157 11 1 11.6716 1 12.5C1 13.3284 1.67157 14 2.5 14H3V15C3 15.5523 3.44772 16 4 16C4.55228 16 5 15.5523 5 15V16C5 16.5523 5.44771 17 6 17C6.55228 17 7 16.5523 7 16V14H17V16C17 16.5523 17.4477 17 18 17C18.5523 17 19 16.5523 19 16V15C19 15.5523 19.4477 16 20 16C20.5523 16 21 15.5523 21 15V14H21.5C22.3284 14 23 13.3284 23 12.5C23 11.6716 22.3284 11 21.5 11H21V9C21 8.44772 20.5523 8 20 8C19.4477 8 19 8.44772 19 9V8C19 7.44772 18.5523 7 18 7C17.4477 7 17 7.44772 17 8V11H7V8C7 7.44772 6.55228 7 6 7ZM18.5 11V8C18.5 7.72386 18.2761 7.5 18 7.5C17.7239 7.5 17.5 7.72386 17.5 8V11V14H18.5V11ZM20.5 9V11V14H19.5V11V9C19.5 8.72386 19.7239 8.5 20 8.5C20.2761 8.5 20.5 8.72386 20.5 9ZM4.5 11V9C4.5 8.72386 4.27614 8.5 4 8.5C3.72386 8.5 3.5 8.72386 3.5 9V11V14H4.5V11ZM6.5 8V11V14H5.5V11V8C5.5 7.72386 5.72386 7.5 6 7.5C6.27614 7.5 6.5 7.72386 6.5 8Z" fill="#3D474D"/>
<path d="M18.5 11H17.5V14H18.5V11Z" fill="#3D474D"/>
</svg>

<svg xmlns="http://www.w3.org/2000/svg" fill="none" viewBox="0 0 24 24" width="100%" height="100%">
  <path fill="#3D474D" d="M4.5 9a.5.5 0 0 0-1 0v2h1V9Zm2-1a.5.5 0 0 0-1 0v3h1V8Zm-2 3h-1v3h1v-3Zm2 0h-1v3h1v-3Zm12-3a.5.5 0 0 0-1 0v3h1V8Zm2 1a.5.5 0 0 0-1 0v2h1V9Zm0 2h-1v3h1v-3Z"/>
  <path fill="#3D474D" fill-rule="evenodd" d="M6 7a1 1 0 0 0-1 1v1a1 1 0 0 0-2 0v2h-.5a1.5 1.5 0 0 0 0 3H3v1a1 1 0 1 0 2 0v1a1 1 0 1 0 2 0v-2h10v2a1 1 0 1 0 2 0v-1a1 1 0 1 0 2 0v-1h.5a1.5 1.5 0 0 0 0-3H21V9a1 1 0 1 0-2 0V8a1 1 0 1 0-2 0v3H7V8a1 1 0 0 0-1-1Zm12.5 4V8a.5.5 0 0 0-1 0v6h1v-3Zm2-2v5h-1V9a.5.5 0 0 1 1 0Zm-16 2V9a.5.5 0 0 0-1 0v5h1v-3Zm2-3v6h-1V8a.5.5 0 0 1 1 0Z" clip-rule="evenodd"/>
  <path fill="#3D474D" d="M18.5 11h-1v3h1v-3Z"/>
</svg>
